X: 340
T: Reel de R\'emi
R: reel
M: C|
K: D
AG |\
"D"FDDD "D7/F#"DFA=c | "G"BGGF  "Em"G2ed | "A7"cAAA Aceg |1,3 "D"fdec "A7"dB :|2,4 "A7"fdec "D"d2 :|
|: ef |\
"G"g3f  g2b2 | "D"abaf "Bm"d2a2 | "Em"gece "A7"Acec | "D"dcde fdef  |
"G"g2gf g2b2 | "D"abaf "Bm"dfaf | "Em"gece "A7"Ace[gc] | "A7"dfec "D"d2 :|

